images/amazon.svg

<svg width="440" height="86" viewBox="0 0 440 86" xmlns="http://www.w3.org/2000/svg" xmlns:xlink="http://www.w3.org/1999/xlink"><title>a_com_w_logo_rgb</title><defs><path id="a" d="M.06.162h439.017V86H.06"/><path id="c" d="M.06.162h439.017V86H.06V.162z"/></defs><g fill="none" fill-rule="evenodd"><path d="M176.71 67.29C160.163 79.505 136.17 86 115.51 86c-28.957 0-55.03-10.703-74.765-28.522-1.55-1.398-.167-3.31 1.695-2.226 21.29 12.39 47.616 19.85 74.808 19.85 18.343 0 38.507-3.807 57.06-11.676 2.798-1.188 5.144 1.844 2.405 3.865" fill="#000"/><path d="M183.6 59.43c-2.12-2.71-13.995-1.285-19.33-.647-1.615.194-1.866-1.217-.41-2.24 9.474-6.654 24.996-4.732 26.8-2.506 1.82 2.248-.475 17.81-9.354 25.238-1.366 1.143-2.664.534-2.06-.976 1.998-4.99 6.47-16.16 4.353-18.87" fill="#000"/><path d="M164.647 9.538V3.073c.004-.984.746-1.64 1.64-1.638l28.977-.003c.926 0 1.67.674 1.672 1.633l-.002 5.545c-.007.93-.79 2.144-2.182 4.07l-15.01 21.43c5.572-.13 11.466.704 16.53 3.55 1.14.64 1.446 1.592 1.536 2.524v6.898c0 .95-1.04 2.05-2.133 1.48-8.92-4.673-20.756-5.185-30.618.055-1.008.537-2.063-.547-2.063-1.498v-6.56c0-1.048.02-2.843 1.078-4.443l17.39-24.95h-15.14c-.926 0-1.67-.66-1.675-1.63M58.943 49.92h-8.815c-.84-.055-1.51-.686-1.577-1.49l.007-45.247c0-.905.76-1.63 1.7-1.63h8.21c.86.043 1.55.693 1.604 1.518v5.91h.166C62.376 3.265 66.408.6 71.84.6c5.512 0 8.97 2.666 11.438 8.38C85.418 3.265 90.272.6 95.458.6c3.702 0 7.734 1.523 10.203 4.95 2.8 3.81 2.224 9.332 2.224 14.188l-.007 28.553c0 .905-.762 1.63-1.7 1.63H97.37c-.884-.057-1.582-.758-1.582-1.625l-.002-23.987c0-1.904.165-6.665-.247-8.474-.66-3.047-2.634-3.904-5.185-3.904-2.14 0-4.362 1.428-5.267 3.714-.905 2.285-.822 6.093-.822 8.664V48.29c0 .905-.762 1.63-1.7 1.63H73.76c-.885-.057-1.583-.758-1.583-1.625l-.01-23.987c0-5.046.824-12.473-5.43-12.473-6.337 0-6.09 7.236-6.09 12.473l-.003 23.983c0 .905-.76 1.63-1.7 1.63M221.963 9.835c-6.502 0-6.913 8.855-6.913 14.377 0 5.523-.082 17.33 6.83 17.33 6.832 0 7.16-9.522 7.16-15.33 0-3.808-.164-8.38-1.316-11.997-.99-3.142-2.964-4.38-5.76-4.38zM221.88.6c13.086 0 20.162 11.235 20.162 25.517 0 13.805-7.816 24.756-20.16 24.756-12.84 0-19.834-11.236-19.834-25.232 0-14.09 7.077-25.04 19.833-25.04zM259.01 49.92h-8.782c-.883-.057-1.582-.758-1.582-1.625l-.014-45.264c.074-.826.805-1.476 1.693-1.476l8.178-.002c.77.04 1.404.565 1.566 1.267v6.92h.165C262.705 3.55 266.16.6 272.25.6c3.948 0 7.817 1.428 10.286 5.332 2.305 3.618 2.305 9.712 2.305 14.09v28.472c-.1.803-.818 1.426-1.69 1.426h-8.837c-.816-.053-1.474-.652-1.57-1.426V23.927c0-4.95.576-12.187-5.514-12.187-2.14 0-4.116 1.428-5.102 3.618-1.234 2.76-1.4 5.522-1.4 8.57V48.29c-.016.905-.778 1.63-1.717 1.63" fill="#0A0A08"/><mask id="b" fill="#fff"><use xlink:href="#a"/></mask><path d="M290.366 46.33c0-2.277 1.944-4.123 4.34-4.123 2.397 0 4.338 1.846 4.338 4.123 0 2.276-1.94 4.12-4.338 4.12-2.396 0-4.34-1.844-4.34-4.12M383.77 49.932c-.916-.028-1.646-.74-1.646-1.627V3.052c.063-.798.736-1.434 1.578-1.488h3.236c.89 0 1.622.65 1.694 1.49V9.65c2.3-5.227 6.588-9.323 12.008-9.323l.34.005.326-.005c5.748 0 9.955 4.24 11.517 10.402C415.26 4.645 419.85.326 425.9.326l.316.005.353-.005c4.277 0 8.392 2.76 10.533 6.95 2.056 4 1.974 9.33 1.974 13.806l-.002 27.224c.002.867-.697 1.568-1.582 1.625h-3.873c-.834-.026-1.517-.623-1.63-1.405V21.083c0-3.237.165-6.665-1.15-9.617-1.347-3.02-3.91-4.898-6.665-5.037-3.078.152-5.903 2.385-7.73 5.417-2.385 3.904-2.3 7.427-2.3 11.997v24.7c-.11.75-.763 1.335-1.57 1.388h-3.853c-.914-.028-1.647-.74-1.647-1.627l-.017-29.03c0-2.667-.164-5.81-1.4-8.19-1.42-2.74-3.975-4.515-6.65-4.656-2.777.154-5.585 2.276-7.25 4.75-2.138 3.143-2.55 7.047-2.55 11.046l-.002 26.08c0 .868-.7 1.57-1.582 1.626h-3.855" fill="#0A0A08" mask="url(#b)"/><path d="M358.124 44.69c4.115-.135 7.36-2.684 9.283-6.945 1.727-3.808 2.057-8.188 2.057-12.377 0-4.57-.494-9.33-2.633-13.235-1.915-3.415-5.22-5.577-8.72-5.707-3.896.143-7.37 2.777-9.13 6.85-1.56 3.522-2.055 8.188-2.055 12.092 0 4.38.576 9.425 2.387 13.234 1.757 3.608 5.15 5.958 8.812 6.087zm-.922 6.195c-12.508 0-18.103-12.76-18.103-25.517 0-13.426 6.583-25.04 19.172-25.04l.325.002.34-.003c12.263 0 18.353 12.377 18.353 25.135 0 13.52-6.748 25.423-19.422 25.423l-.324-.004-.342.005zM318.114 44.5c5.615-.176 8.563-4.676 9.787-10.51.24-.727.798-1.287 1.617-1.287l3.714-.016c.876.046 1.68.716 1.615 1.533-1.715 9.923-7.705 16.665-16.242 16.665l-.344-.004-.323.005c-12.426 0-17.776-12.473-17.776-25.137 0-12.568 5.433-25.42 17.86-25.42l.327.002.338-.003c8.623 0 14.777 6.645 16.113 16.574 0 .746-.692 1.39-1.502 1.485l-3.893-.046c-.808-.116-1.343-.82-1.465-1.6-.937-5.542-4.12-9.95-9.425-10.124-8.45.27-10.854 10.67-10.854 18.656 0 7.71 2.005 18.95 10.454 19.228" fill="#0A0A08"/><g><mask id="d" fill="#fff"><use xlink:href="#c"/></mask><path d="M150.435 49.807c-.584.523-1.425.558-2.083.205-2.928-2.434-3.453-3.56-5.053-5.875-4.84 4.93-8.27 6.408-14.536 6.408-7.422 0-13.196-4.58-13.196-13.74 0-7.157 3.876-12.023 9.402-14.41 4.783-2.1 11.464-2.48 16.577-3.053v-1.145c0-2.1.165-4.58-1.072-6.393-1.073-1.622-3.134-2.29-4.95-2.29-3.36 0-6.35 1.723-7.085 5.294-.152.794-.732 1.58-1.53 1.62l-8.546-.925c-.72-.162-1.523-.74-1.315-1.842C119.012 3.295 128.373.163 136.763.163c4.288 0 9.896 1.145 13.277 4.39 4.29 4.008 3.877 9.35 3.877 15.172V33.46c0 4.13 1.717 5.943 3.328 8.17.563.8.69 1.755-.03 2.34-1.8 1.51-5 4.29-6.76 5.856l-.02-.02zm-8.888-21.495c0 3.435.082 6.298-1.65 9.352-1.402 2.48-3.628 4.007-6.103 4.007-3.38 0-5.36-2.576-5.36-6.392 0-7.508 6.735-8.874 13.113-8.874v1.908zM34.866 49.807c-.584.523-1.426.558-2.083.205-2.93-2.434-3.453-3.56-5.054-5.875-4.84 4.93-8.267 6.408-14.535 6.408C5.772 50.545 0 45.965 0 36.805c0-7.157 3.876-12.023 9.4-14.41 4.785-2.1 11.465-2.48 16.577-3.053v-1.145c0-2.1.166-4.58-1.07-6.393-1.073-1.622-3.136-2.29-4.95-2.29-3.36 0-6.352 1.723-7.085 5.294-.153.794-.732 1.58-1.532 1.62l-8.544-.925c-.722-.162-1.525-.74-1.316-1.842C3.443 3.295 12.805.163 21.194.163c4.29 0 9.897 1.145 13.28 4.39 4.287 4.008 3.875 9.35 3.875 15.172V33.46c0 4.13 1.714 5.943 3.326 8.17.562.8.69 1.755-.03 2.34-1.8 1.51-5 4.29-6.76 5.856l-.02-.02zm-8.89-21.495c0 3.435.084 6.298-1.648 9.352-1.4 2.48-3.628 4.007-6.102 4.007-3.38 0-5.36-2.576-5.36-6.392 0-7.508 6.735-8.874 13.11-8.874v1.908z" fill="#0A0A08" mask="url(#d)"/></g></g></svg>

<?xml version="1.0" encoding="UTF-8" standalone="no"?>
<svg width="440px" height="86px" viewBox="0 0 440 86" version="1.1" xmlns="http://www.w3.org/2000/svg" xmlns:xlink="http://www.w3.org/1999/xlink" xmlns:sketch="http://www.bohemiancoding.com/sketch/ns">
    <!-- Generator: Sketch 3.4 (15575) - http://www.bohemiancoding.com/sketch -->
    <title>a_com_w_logo_rgb</title>
    <desc>Created with Sketch.</desc>
    <defs>
        <path id="path-1" d="M0.06,0.162 L439.077,0.162 L439.077,86 L0.06,86"></path>
        <path id="path-3" d="M0.06,0.162 L439.077,0.162 L439.077,86 L0.06,86 L0.06,0.162 Z"></path>
    </defs>
    <g id="Page-1" stroke="none" stroke-width="1" fill="none" fill-rule="evenodd" sketch:type="MSPage">
        <g id="a_com_w_logo_rgb" sketch:type="MSLayerGroup">
            <path d="M176.711,67.291 C160.162,79.504 136.168,86 115.508,86 C86.551,86 60.477,75.297 40.743,57.478 C39.194,56.08 40.576,54.168 42.438,55.252 C63.727,67.641 90.054,75.102 117.246,75.102 C135.589,75.102 155.753,71.295 174.306,63.426 C177.104,62.238 179.45,65.27 176.711,67.291" id="Fill-1" fill="#000000" sketch:type="MSShapeGroup"></path>
            <path d="M183.599,59.43 C181.481,56.719 169.605,58.145 164.271,58.783 C162.655,58.977 162.404,57.566 163.861,56.543 C173.334,49.889 188.856,51.811 190.66,54.037 C192.479,56.285 190.185,71.848 181.306,79.275 C179.94,80.418 178.642,79.809 179.247,78.299 C181.244,73.31 185.717,62.141 183.599,59.43" id="Fill-2" fill="#000000" sketch:type="MSShapeGroup"></path>
            <path d="M164.647,9.538 L164.647,3.073 C164.651,2.089 165.393,1.433 166.286,1.435 L195.264,1.432 C196.19,1.432 196.934,2.106 196.936,3.065 L196.934,8.61 C196.927,9.54 196.144,10.754 194.752,12.68 L179.742,34.111 C185.314,33.981 191.208,34.814 196.271,37.66 C197.412,38.301 197.718,39.252 197.808,40.184 L197.808,47.082 C197.808,48.033 196.768,49.133 195.675,48.561 C186.755,43.889 174.919,43.377 165.057,48.617 C164.049,49.154 162.994,48.07 162.994,47.119 L162.994,40.561 C162.994,39.512 163.014,37.717 164.072,36.117 L181.463,11.168 L166.321,11.166 C165.396,11.166 164.653,10.506 164.647,9.538" id="Fill-3" fill="#0A0A08" sketch:type="MSShapeGroup"></path>
            <path d="M58.943,49.92 L50.128,49.92 C49.289,49.865 48.618,49.234 48.551,48.43 L48.557,3.183 C48.557,2.278 49.318,1.554 50.258,1.554 L58.468,1.552 C59.327,1.596 60.017,2.246 60.071,3.071 L60.071,8.979 L60.236,8.979 C62.376,3.266 66.408,0.6 71.839,0.6 C77.352,0.6 80.809,3.266 83.278,8.979 C85.417,3.266 90.272,0.6 95.457,0.6 C99.16,0.6 103.192,2.123 105.661,5.551 C108.459,9.359 107.884,14.882 107.884,19.738 L107.877,48.291 C107.877,49.195 107.115,49.92 106.177,49.92 L97.371,49.92 C96.486,49.863 95.788,49.162 95.788,48.295 L95.786,24.308 C95.786,22.404 95.951,17.643 95.539,15.834 C94.881,12.787 92.906,11.93 90.355,11.93 C88.216,11.93 85.993,13.358 85.088,15.644 C84.183,17.929 84.266,21.737 84.266,24.308 L84.266,48.291 C84.266,49.195 83.504,49.92 82.565,49.92 L73.76,49.92 C72.875,49.863 72.177,49.162 72.177,48.295 L72.168,24.308 C72.168,19.262 72.991,11.835 66.737,11.835 C60.4,11.835 60.647,19.071 60.647,24.308 L60.644,48.291 C60.645,49.195 59.883,49.92 58.943,49.92" id="Fill-4" fill="#0A0A08" sketch:type="MSShapeGroup"></path>
            <path d="M221.963,9.835 C215.461,9.835 215.05,18.69 215.05,24.212 C215.05,29.735 214.968,41.542 221.881,41.542 C228.712,41.542 229.04,32.02 229.04,26.212 C229.04,22.404 228.876,17.833 227.724,14.215 C226.735,11.073 224.76,9.835 221.963,9.835 L221.963,9.835 Z M221.881,0.6 C234.966,0.6 242.042,11.835 242.042,26.117 C242.042,39.922 234.226,50.873 221.881,50.873 C209.043,50.873 202.048,39.637 202.048,25.641 C202.048,11.549 209.125,0.6 221.881,0.6 L221.881,0.6 Z" id="Fill-5" fill="#0A0A08" sketch:type="MSShapeGroup"></path>
            <path d="M259.011,49.92 L250.228,49.92 C249.345,49.863 248.646,49.162 248.646,48.295 L248.632,3.031 C248.706,2.204 249.437,1.554 250.325,1.554 L258.503,1.552 C259.272,1.591 259.907,2.117 260.069,2.819 L260.069,9.74 L260.235,9.74 C262.704,3.551 266.159,0.6 272.249,0.6 C276.198,0.6 280.067,2.028 282.536,5.932 C284.841,9.55 284.841,15.644 284.841,20.023 L284.841,48.494 C284.741,49.297 284.022,49.92 283.151,49.92 L274.313,49.92 C273.497,49.867 272.839,49.268 272.743,48.494 L272.743,23.927 C272.743,18.976 273.319,11.74 267.229,11.74 C265.089,11.74 263.114,13.168 262.128,15.358 C260.894,18.119 260.728,20.88 260.728,23.927 L260.728,48.291 C260.712,49.195 259.95,49.92 259.011,49.92" id="Fill-6" fill="#0A0A08" sketch:type="MSShapeGroup"></path>
            <g id="Group-10">
                <mask id="mask-2" sketch:name="Clip 8" fill="white">
                    <use xlink:href="#path-1"></use>
                </mask>
                <g id="Clip-8"></g>
                <path d="M290.366,46.33 C290.366,44.053 292.31,42.207 294.706,42.207 C297.103,42.207 299.044,44.053 299.044,46.33 C299.044,48.606 297.103,50.451 294.706,50.451 C292.31,50.451 290.366,48.606 290.366,46.33" id="Fill-7" fill="#0A0A08" sketch:type="MSShapeGroup" mask="url(#mask-2)"></path>
                <path d="M383.769,49.932 C382.854,49.904 382.124,49.191 382.124,48.305 L382.124,3.052 C382.187,2.254 382.86,1.618 383.702,1.564 L386.938,1.563 C387.829,1.563 388.56,2.214 388.632,3.053 L388.632,9.651 C390.933,4.423 395.22,0.327 400.64,0.327 L400.979,0.332 L401.306,0.327 C407.054,0.327 411.261,4.568 412.823,10.729 C415.259,4.646 419.849,0.327 425.901,0.327 L426.216,0.332 L426.569,0.327 C430.847,0.327 434.962,3.088 437.103,7.277 C439.159,11.276 439.077,16.608 439.077,21.083 L439.075,48.307 C439.077,49.174 438.378,49.875 437.493,49.932 L433.62,49.932 C432.786,49.906 432.103,49.309 431.991,48.527 L431.991,21.083 C431.991,17.846 432.155,14.418 430.839,11.466 C429.493,8.445 426.931,6.568 424.175,6.429 C421.097,6.582 418.272,8.815 416.446,11.847 C414.06,15.751 414.144,19.274 414.144,23.844 L414.144,48.543 C414.034,49.293 413.382,49.879 412.575,49.932 L408.722,49.932 C407.808,49.904 407.075,49.191 407.075,48.305 L407.058,19.274 C407.058,16.608 406.894,13.466 405.659,11.085 C404.237,8.346 401.683,6.57 399.007,6.429 C396.231,6.584 393.423,8.706 391.759,11.181 C389.62,14.323 389.208,18.227 389.208,22.226 L389.206,48.307 C389.206,49.174 388.507,49.875 387.624,49.932 L383.769,49.932" id="Fill-9" fill="#0A0A08" sketch:type="MSShapeGroup" mask="url(#mask-2)"></path>
            </g>
            <path d="M358.124,44.689 C362.239,44.555 365.485,42.006 367.407,37.745 C369.134,33.937 369.464,29.557 369.464,25.368 C369.464,20.797 368.97,16.037 366.831,12.133 C364.915,8.718 361.61,6.556 358.11,6.426 C354.214,6.569 350.741,9.203 348.981,13.275 C347.419,16.798 346.925,21.464 346.925,25.368 C346.925,29.747 347.501,34.793 349.312,38.602 C351.069,42.21 354.462,44.56 358.124,44.689 L358.124,44.689 Z M357.202,50.885 C344.694,50.885 339.099,38.126 339.099,25.368 C339.099,11.942 345.683,0.327 358.272,0.327 L358.597,0.33 L358.938,0.327 C371.2,0.327 377.29,12.704 377.29,25.462 C377.29,38.983 370.542,50.885 357.868,50.885 L357.544,50.881 L357.202,50.885 L357.202,50.885 Z" id="Fill-11" fill="#0A0A08" sketch:type="MSShapeGroup"></path>
            <path d="M318.114,44.5 C323.729,44.324 326.677,39.824 327.901,33.99 C328.14,33.263 328.698,32.703 329.517,32.703 L333.231,32.687 C334.106,32.733 334.911,33.403 334.845,34.22 C333.13,44.143 327.14,50.885 318.603,50.885 L318.259,50.881 L317.937,50.885 C305.511,50.885 300.161,38.412 300.161,25.748 C300.161,13.18 305.593,0.327 318.019,0.327 L318.347,0.33 L318.685,0.327 C327.308,0.327 333.462,6.972 334.798,16.901 C334.798,17.646 334.106,18.291 333.296,18.385 L329.403,18.339 C328.595,18.224 328.06,17.521 327.938,16.741 C327.001,11.198 323.817,6.791 318.513,6.616 C310.063,6.886 307.659,17.285 307.659,25.272 C307.659,32.982 309.665,44.221 318.114,44.5" id="Fill-12" fill="#0A0A08" sketch:type="MSShapeGroup"></path>
            <g id="Group-16">
                <mask id="mask-4" sketch:name="Clip 14" fill="white">
                    <use xlink:href="#path-3"></use>
                </mask>
                <g id="Clip-14"></g>
                <path d="M150.435,49.807 C149.851,50.33 149.01,50.365 148.352,50.012 C145.424,47.578 144.899,46.453 143.299,44.137 C138.459,49.066 135.031,50.545 128.764,50.545 C121.342,50.545 115.568,45.965 115.568,36.805 C115.568,29.648 119.444,24.782 124.97,22.396 C129.753,20.296 136.434,19.915 141.547,19.342 L141.547,18.197 C141.547,16.098 141.712,13.617 140.475,11.804 C139.402,10.182 137.341,9.514 135.526,9.514 C132.164,9.514 129.175,11.237 128.44,14.808 C128.288,15.602 127.708,16.388 126.909,16.428 L118.364,15.503 C117.643,15.341 116.841,14.762 117.049,13.661 C119.013,3.294 128.374,0.162 136.764,0.162 C141.052,0.162 146.66,1.307 150.041,4.552 C154.33,8.56 153.917,13.903 153.917,19.724 L153.917,33.459 C153.917,37.59 155.634,39.403 157.245,41.629 C157.808,42.431 157.935,43.385 157.216,43.971 C155.415,45.48 152.216,48.26 150.455,49.826 L150.435,49.807 L150.435,49.807 Z M141.547,28.312 C141.547,31.747 141.629,34.61 139.897,37.664 C138.495,40.145 136.269,41.671 133.794,41.671 C130.413,41.671 128.434,39.094 128.434,35.278 C128.434,27.77 135.169,26.404 141.547,26.404 L141.547,28.312 L141.547,28.312 Z" id="Fill-13" fill="#0A0A08" sketch:type="MSShapeGroup" mask="url(#mask-4)"></path>
                <path d="M34.866,49.807 C34.282,50.33 33.44,50.365 32.783,50.012 C29.854,47.578 29.33,46.453 27.729,44.137 C22.891,49.066 19.463,50.545 13.195,50.545 C5.772,50.545 0,45.965 0,36.805 C0,29.648 3.876,24.782 9.401,22.396 C14.185,20.296 20.865,19.915 25.977,19.342 L25.977,18.197 C25.977,16.098 26.143,13.617 24.906,11.804 C23.834,10.182 21.771,9.514 19.958,9.514 C16.596,9.514 13.605,11.237 12.872,14.808 C12.719,15.602 12.14,16.388 11.34,16.428 L2.796,15.503 C2.074,15.341 1.271,14.762 1.48,13.661 C3.443,3.294 12.805,0.162 21.194,0.162 C25.483,0.162 31.091,1.307 34.473,4.552 C38.761,8.56 38.349,13.903 38.349,19.724 L38.349,33.459 C38.349,37.59 40.064,39.403 41.676,41.629 C42.238,42.431 42.365,43.385 41.647,43.971 C39.847,45.48 36.646,48.26 34.887,49.826 L34.866,49.807 L34.866,49.807 Z M25.977,28.312 C25.977,31.747 26.06,34.61 24.328,37.664 C22.927,40.145 20.7,41.671 18.226,41.671 C14.845,41.671 12.865,39.094 12.865,35.278 C12.865,27.77 19.601,26.404 25.977,26.404 L25.977,28.312 L25.977,28.312 Z" id="Fill-15" fill="#0A0A08" sketch:type="MSShapeGroup" mask="url(#mask-4)"></path>
            </g>
        </g>
    </g>
</svg>
